X: 131024
T: Mouse behind the Dresser
S: "Crossroads Dance" [Taylor/Mallinson]
Z: B.Black
R: reel
M: 4/4
L: 1/8
K: G
(3efg dB G3E|DG G2 DGBc|dBAB G3A|Beed efge|
dBAB G3E|DG G2 DGBc|dBAB G3A|Beed e2||
ge|dB B2 dBge|dB B2 d2 ge|dB B2 g2 fg|\
(3efg dB A2 Bc|
dB B2 dBgf|edef g3a|bgaf gfed|(3efg fa g2 Bd||
